X:1
T:En m'oyant chanter Lasso
T:James Gibb editions
T:#
%%score [ 1 2 3 4 ]
L:1/8
Q:1/4=108
M:2/2
K:C
V:1 treble nm="Soprano" snm="S"
V:2 treble nm="Alto" snm="A"
V:3 treble-8 nm="Tenor" snm="T"
V:4 bass nm="Bass" snm="B"
V:1
"^Clément Marot\n(1496-1544)""^En m'oyant chanter""^Orlando di Lasso\n(1532-94)" G2 GG B2 B2 | %1
w: En m'o- yant chan- ter|
 A2 B2 c2 G2- | G2 A2 F2 _B2- | BAGF E2 F2 |[M:2/2] E2 G2 A2 _B2- | BAGG ^F2 G2- | G2 G2 A2 G2 | %7
w: quel- que fois, Tu|* te plains qu'es\-|* tre je ne dai- gne,|Tu te plains qu'es\-|* tre je ne dai- gne,|* Mu- si- ci-|
 ^F4 z2 G2 | A2 c2 B2 e2 | eedc B2 A2- | A2 ^G2 A4 | A2 AA c2 _B2 | A2 G2 A4 | A2 F2 F4- | F4 E4- | %15
w: en Et|que ma voix me-|ri- te bien que l'on m'en\-|* sei- gne.|Voi- re que la pe-|me je prei-|gne D'ap- pren\-|* dre:|
 E4 z2 G2- | G A2 B c4 | d2 e2 z A c2- | c2 A2 z4 | z2 C4 D2 | E4 F2 G2 | A2 z G EE G2- | %22
w: * Ut|* re mi fa|sol la, D'ap- pren\-|* dre:|Ut re|mi fa sol|la, Quel dia- ble veux\-|
 G2 A2 ^FF G2 | E2 c2 BGAA | GG G2 ^F4 | A3 A c2 BG | AB A2 z4 | z8 | A3 A c2 BG | AB A2 A3 A | %30
w: * tu que j'ap- prei-|gne, Quel dia- ble veux- tu|que j'ap- prei- gne,|Je ne boy que trop|sans ce- la,||Je ne boy que trop|sans ce- la, Je ne|
 AFG A2 (G2 ^F) | G2[Q:1/4=107] B[Q:1/4=106]B[Q:1/4=104] c2[Q:1/4=102] d[Q:1/4=101]B | %32
w: boy que trop sans ce\- *|la, Je ne boy que trop|
[Q:1/4=99] c2[Q:1/4=97] c2[Q:1/4=94] B4- |[Q:1/4=92] B8 |] %34
w: sans ce- la.||
V:2
 D2 DD G2 G2 | ^F2 G2 G2 E2- | E2 C2 D2 G2- | GFED ^C2 D2 |[M:2/2] ^C2 D2 F2 F2- | FFDE D2 D2 | %6
w: En m'o- yant chan- ter|quel- que fois, Tu|* te plains qu'es\-|* tre je ne dai- gne,|Tu te plains qu'es\-|* tre je ne dai- gne,|
 E4 F2 E2 | D4 z2 D2 | F2 E2 G3 G | GGGG G2 E2 | E4 C4 | F2 FF G2 G2 | E2 D2 E4 | F2 D2 (CA, C2- | %14
w: Mu- si- ci-|en Et|que ma voix me-|ri- te bien que l'on m'en-|sei- gne.|Voi- re que la pe-|ine je prei-|gne D'ap- pren\- * *|
 CB,/A,/ B,2) C4 | z2 C2 D4 | E2 F2 G2 A2 | z D G2 F2 z2 | C2 D2 E4 | F2 G2 A4 | z4 D2 B,F | %21
w: * * * * dre:|Ut re|mi fa sol la,|D'ap- pren- dre:|Ut re mi|fa sol la,|Quel dia- ble|
 A,2 B,2 C2 D2 | E4 D4 | z G, G3 DFF | EE D2 D2 D2- | DD F2 ECDE | D4 z4 | z4 z2 D2- | DD F2 ECDE | %29
w: veux- tu que j'ap-|prei- gne,|Quel dia- ble veux tu|que j'ap- prei- gne, Je|* ne boy que trop sans ce-|la,|Je|* ne boy que trop sans ce-|
 D2 F3 F F2 | C2 E2 DB, D2 | B,B, D2 E2 D2 | E2 E2 D4- | D8 |] %34
w: la, Je ne boy|que trop sans ce- la,|Je ne boy que trop|sans ce- la.||
V:3
 B2 BB d2 d2 | d2 d2 e2 c2- | c2 F2 _B2 G2- | GAcd A2 D2 |[M:2/2][K:treble-8] A2 B2 c2 d2- | %5
w: En m'o- yant chan- ter|quel- que fois, Tu|* te plains qu'es\-|* tre je ne dai- gne,|Tu te plains qu'es\-|
 dcBc A2 B2 | c4 c2 c2 | A4 z2 B2 | c2 c2 d2 c2 | ccBe d2 c2 | B4 A4 | c2 cc e2 d2 | %12
w: * tre je ne dai- gne,|Mu- si- ci-|en Et|que ma voix me-|ri- te bien que l'on m'en-|sei- gne.|Voi- re que la pe-|
 ^cc (d3 c/B/ c2) | d2 A2 (G4 | d4) G2 G2 | A4 B4 | c2 d2 e2 A2 | B2 c2 z2 G2 | A4 B2 c2 | %19
w: ine je prei\- * * *|gne D'ap- pren\-|* dre: Ut|re mi|fa sol la, D'ap-|pren- dre: Ut|re mi fa|
 d2 e2 z4 | G2 A3 B2 c- | c d2 e z ABB | c3 c AA B2 | c2 e2 dBcd | Bc B2 A4 | z8 | z4 A3 B | %27
w: sol la,|Ut re mi fa|* sol la, Quel dia- ble|veux- tu que j'ap- prei-|gne, Quel dia- ble veux- tu|que j'ap- prei- gne,||Je ne|
 c2 BG AB A2 | D3 D A2 GE | FG D2 z2 A2- | AA c2 BGAA | G8- | G8 | G8 |] %34
w: boy que trop sans ce- la,|Je ne boy que trop|sans ce- la, Je|* ne boy que trop sans ce-|la.|||
V:4
 G,2 G,G, G,2 G,2 | D,2 G,2 C,4 | z8 | z4 z2 A,2- |[M:2/2] A,2 G,2 F,2 _B,,2- | %5
w: En m'o- yant chan- ter|quel- que fois,||Tu|* te plains qu'es\-|
 B,,F,G,C, D,2 G,,2 | C,4 F,,2 C,2 | D,4 z2 G,2 | F,2 A,2 G,2 C,2 | C,C,G,C, G,2 A,2 | %10
w: * tre je ne dai- gne,|Mu- si- ci-|en Et|que ma voix me-|ri- te bien que l'on m'en-|
 E,4 A,,2 F,2 | F,2 F,2 C,2 G,2 | A,2 _B,2 A,4 | D,2 D,2 (F,3 E, | D,4) C,4 | z8 | z8 | %17
w: sei- gne. Voi-|re que la pe-|ine je prei-|gne D'ap- pren\- *|* dre:|||
 z2 C,2 D,2 E,2 | F,4 G,2 A,2 | z8 | C,4 D,2 E,2 | F,2 G,2 A,2 z G, | C,C,A,,A,, D,D, G,,2 | %23
w: Ut re mi|fa sol la,||Ut re mi|fa sol la, Quel|dia- ble veux- tu que j'ap- prei-|
 C,2 C,2 G,G,F,D, | E,C, G,2 D,4 | z8 | z2 D,3 D, F,2 | E,C,D,E, D,4 | z8 | z4 D,3 D, | %30
w: gne, Quel dia- ble veux- tu|que j'ap- prei- gne,||Je ne boy|que trop sans ce- la,||Je ne|
 F,2 E,C, D,E, D,2 | z2 G,,G,, C,2 B,,G,, | C,2 C,2 G,,4- | G,,8 |] %34
w: boy que trop sans ce- la,|Je ne boy que trop|sans ce- la.||

